Apricity Icons/16/panel/btsync-gui-7.svg

<svg xmlns="http://www.w3.org/2000/svg" width="16" height="16" version="1.1">
 <defs>
  <style id="current-color-scheme" type="text/css">
   .ColorScheme-Text { color:#dfdfdf; } .ColorScheme-Highlight { color:#4285f4; }
  </style>
 </defs>
 <path style="fill:currentColor" class="ColorScheme-Text" d="M 14.76148,6.1882662 C 13.760951,2.454239 9.9222946,0.23798953 6.1882666,1.2385192 2.4542389,2.2390488 0.23798899,6.077706 1.2385189,9.8117333 2.2390494,13.545761 6.0777058,15.762011 9.8117344,14.76148 13.545761,13.760951 15.762011,9.9222945 14.76148,6.1882662 Z m -1.931851,0.5176386 c 0.626084,2.3365771 -0.510743,4.7305492 -2.59539,5.7686902 L 10.51884,13.536734 7.1034245,12.381342 9.4835635,9.6730325 9.694865,10.46162 C 10.711123,9.7616162 11.23541,8.4836036 10.897778,7.2235432 10.711894,6.5346703 10.28657,5.9346031 9.6981478,5.5310469 L 10.232596,3.5336461 c 1.279324,0.6375879 2.224595,1.7922303 2.597033,3.1722587 z M 8.8965755,3.6186585 6.5164362,6.3269674 6.3051342,5.5383794 C 5.2888754,6.2383825 4.7645905,7.5163963 5.102222,8.7764577 5.2881058,9.4653291 5.7134301,10.065397 6.3018519,10.468955 l -0.534448,1.997399 C 4.4880795,11.828766 3.5428389,10.674115 3.1703709,9.2940953 2.5442859,6.9575175 3.681114,4.5635461 5.765759,3.5254051 L 5.48116,2.4632642 8.8965755,3.6186585 Z"/>
</svg>

<svg xmlns="http://www.w3.org/2000/svg" width="16" height="16"><defs><style id="current-color-scheme" type="text/css"></style></defs><path d="M14.761 6.188A7 7 0 1 0 1.238 9.812a7 7 0 0 0 13.523-3.624zm-1.931.518a5.002 5.002 0 0 1-2.596 5.769l.285 1.062-3.416-1.156 2.38-2.708.212.789a2.99 2.99 0 0 0 1.203-3.238 3 3 0 0 0-1.2-1.693l.535-1.997a5 5 0 0 1 2.597 3.172zM8.897 3.619l-2.38 2.708-.212-.789a2.99 2.99 0 0 0-1.203 3.238 3 3 0 0 0 1.2 1.693l-.535 1.997A5 5 0 0 1 3.17 9.294a5.002 5.002 0 0 1 2.596-5.769L5.48 2.463 8.897 3.62z" fill="currentColor" color="#dfdfdf"/></svg>
